juniorguru/images/eggshell-i.svg

<?xml version="1.0" encoding="UTF-8" standalone="no"?>
<svg
   viewBox="0 0 350 32"
   version="1.1"
   id="svg11"
   sodipodi:docname="eggshell-i.svg"
   inkscape:version="1.1 (c4e8f9e, 2021-05-24)"
   width="350"
   height="32"
   xmlns:inkscape="http://www.inkscape.org/namespaces/inkscape"
   xmlns:sodipodi="http://sodipodi.sourceforge.net/DTD/sodipodi-0.dtd"
   xmlns="http://www.w3.org/2000/svg"
   xmlns:svg="http://www.w3.org/2000/svg">
  <defs
     id="defs15" />
  <sodipodi:namedview
     id="namedview13"
     pagecolor="#fff"
     bordercolor="#666666"
     borderopacity="1.0"
     inkscape:pageshadow="2"
     inkscape:pageopacity="0.0"
     inkscape:pagecheckerboard="true"
     showgrid="false"
     inkscape:zoom="6.0666429"
     inkscape:cx="7.2527757"
     inkscape:cy="34.780356"
     inkscape:window-width="1382"
     inkscape:window-height="847"
     inkscape:window-x="58"
     inkscape:window-y="25"
     inkscape:window-maximized="1"
     inkscape:current-layer="svg11"
     fit-margin-top="0"
     fit-margin-left="0"
     fit-margin-right="0"
     fit-margin-bottom="0"
     showguides="true"
     inkscape:guide-bbox="true">
    <sodipodi:guide
       position="81.742911,11.311979"
       orientation="0,-1"
       id="guide2014" />
  </sodipodi:namedview>
  <path
     d="M 244.28924,32 320.619,1.0272127 364.93229,32"
     fill="#fff"
     vector-effect="non-scaling-stroke"
     id="path9"
     style="stroke-width:0.398461"
     sodipodi:nodetypes="ccc" />
  <path
     d="M 198.72195,32 255.45029,5.7033753 314.93965,32"
     fill="#fff"
     vector-effect="non-scaling-stroke"
     id="path408"
     style="stroke-width:0.398937"
     sodipodi:nodetypes="ccc" />
  <path
     d="M 98.50754,32 177.79858,2.741723 219.09029,32"
     fill="#fff"
     vector-effect="non-scaling-stroke"
     id="path634"
     style="stroke-width:0.498963"
     sodipodi:nodetypes="ccc" />
  <path
     d="M 80.307951,32 116.29336,4.687823 159.87866,32"
     fill="#fff"
     vector-effect="non-scaling-stroke"
     id="path636"
     style="stroke-width:0.379839"
     sodipodi:nodetypes="ccc" />
  <path
     d="M 36.741556,32 57.435975,12.861909 114.22977,32"
     fill="#fff"
     vector-effect="non-scaling-stroke"
     id="path638"
     style="stroke-width:0.397764"
     sodipodi:nodetypes="ccc" />
  <path
     d="M -20.421508,32 26.342162,6.419912 68.785293,32"
     fill="#fff"
     vector-effect="non-scaling-stroke"
     id="path640"
     style="stroke-width:0.338887"
     sodipodi:nodetypes="ccc" />
</svg>

<?xml version="1.0" encoding="UTF-8"?>
<svg id="svg11" width="350" height="32" version="1.1" viewBox="0 0 350 32" xmlns="http://www.w3.org/2000/svg">
 <path id="path9" d="m244.29 32 76.33-30.973 44.313 30.973" fill="#fff" stroke-width=".39846" vector-effect="non-scaling-stroke"/>
 <path id="path408" d="m198.72 32 56.728-26.297 59.489 26.297" fill="#fff" stroke-width=".39894" vector-effect="non-scaling-stroke"/>
 <path id="path634" d="m98.508 32 79.291-29.258 41.292 29.258" fill="#fff" stroke-width=".49896" vector-effect="non-scaling-stroke"/>
 <path id="path636" d="m80.308 32 35.985-27.312 43.585 27.312" fill="#fff" stroke-width=".37984" vector-effect="non-scaling-stroke"/>
 <path id="path638" d="m36.742 32 20.694-19.138 56.794 19.138" fill="#fff" stroke-width=".39776" vector-effect="non-scaling-stroke"/>
 <path id="path640" d="m-20.422 32 46.764-25.58 42.443 25.58" fill="#fff" stroke-width=".33889" vector-effect="non-scaling-stroke"/>
</svg>
